X: 41638
T: Up The Southern Shore
R: jig
M: 6/8
K: Dmajor
d2B BcB|ABA AFA|B2(B B2)A/B/|g3 f2e|
d2B BcB|ABA AFA|Bcd efe|1 d2f age:|2 d3A3||
d2e f2g|a (a2 a2)e|d2e f2g|a2(a a2)g/a/|
b2b a2f|g2g f2e|d2B BAB|g3 f2e:|

